symbols/web/signal_wifi_bad/materialsymbolsrounded/signal_wifi_bad_wght600gradN25_20px.svg

<svg xmlns="http://www.w3.org/2000/svg" height="20" width="20"><path d="M10 17.646q-.229 0-.438-.094-.208-.094-.374-.302L1.021 8.396q-.313-.375-.313-.844t.354-.76q1.834-1.646 4.146-2.563Q7.521 3.312 10 3.312q2.479 0 4.792.917 2.312.917 4.146 2.563.354.291.354.76 0 .469-.313.844l-1.437 1.542h-5.354q-.917 0-1.553.635-.635.635-.635 1.552Zm2.312-.688Q12 16.667 12 16.312q0-.354.312-.645l1.063-1.063-1.063-1.062q-.291-.271-.291-.646t.291-.646q.292-.292.646-.281.354.01.646.281l1.042 1.083 1.083-1.083q.271-.271.636-.271.364 0 .656.271.291.292.291.646 0 .354-.291.646l-1.083 1.062 1.083 1.084q.291.27.291.624 0 .355-.291.646-.292.313-.646.313-.354 0-.646-.313l-1.083-1.062-1.063 1.062q-.271.292-.635.292-.365 0-.636-.292Z"/></svg>

<svg xmlns="http://www.w3.org/2000/svg" height="20" width="20"><path d="M10 17.646Q9.771 17.646 9.562 17.552Q9.354 17.458 9.188 17.25L1.021 8.396Q0.708 8.021 0.708 7.552Q0.708 7.083 1.062 6.792Q2.896 5.146 5.208 4.229Q7.521 3.312 10 3.312Q12.479 3.312 14.792 4.229Q17.104 5.146 18.938 6.792Q19.292 7.083 19.292 7.552Q19.292 8.021 18.979 8.396L17.542 9.938H12.188Q11.271 9.938 10.635 10.573Q10 11.208 10 12.125ZM12.312 16.958Q12 16.667 12 16.312Q12 15.958 12.312 15.667L13.375 14.604L12.312 13.542Q12.021 13.271 12.021 12.896Q12.021 12.521 12.312 12.25Q12.604 11.958 12.958 11.969Q13.312 11.979 13.604 12.25L14.646 13.333L15.729 12.25Q16 11.979 16.365 11.979Q16.729 11.979 17.021 12.25Q17.312 12.542 17.312 12.896Q17.312 13.25 17.021 13.542L15.938 14.604L17.021 15.688Q17.312 15.958 17.312 16.312Q17.312 16.667 17.021 16.958Q16.729 17.271 16.375 17.271Q16.021 17.271 15.729 16.958L14.646 15.896L13.583 16.958Q13.312 17.25 12.948 17.25Q12.583 17.25 12.312 16.958Z"/></svg>
